X:202
T: Das Leben ist ein Traum (3-44), S. 116
N: K1177
O: Luxemburg
S: KINTZELE, Guillaume: An der Ucht, Bd. 3 Luxemburg 1928]
N: in der Quelle mit einer 2. Stimme versehen
R: Jagdlied?]
M: 4/4
L: 1/16
K: C
G2G2F2 | E4E4E3ED2E2 | F4D3DD2
G2G2G2 | G6G2G2G2A3G | G4E3EE2
G2E2G2 | c4B4A3GA3c | G4z2
E2F2E2D2A2 | A4G4F4G4 | E8z2
G2E2G2 | c4B4A3GA3c | G4z2
E2F2E2D2A2 | A4G4F4G4 | E8z2

